src/16/panel/pomodoro-indicator-light-11.svg

<svg xmlns="http://www.w3.org/2000/svg" width="16" height="16" version="1.1">
 <defs>
  <style id="current-color-scheme" type="text/css">
   .ColorScheme-Text { color:#dfdfdf; } .ColorScheme-Highlight { color:#4285f4; }
  </style>
 </defs>
 <path style="fill:currentColor" class="ColorScheme-Text" d="M 8 1 C 6.3452 1 4.8231667 1.5435764 3.625 2.5546875 L 2.2148438 1.15625 L 1.1210938 2.2441406 L 2.53125 3.6445312 C 1.5712389 4.8111978 1 6.3666667 1 8 C 1 11.888889 4.1339778 15 8 15 C 11.866333 15 15 11.888889 15 8 C 15 6.3666667 14.429305 4.8111978 13.46875 3.6445312 L 14.878906 2.2441406 L 13.785156 1.15625 L 12.375 2.5546875 C 11.177222 1.5435764 9.6551112 1 8 1 z M 8 3 C 10.761429 3 13 5.2142856 13 8 C 13 10.785714 10.761429 13 8 13 C 5.2385713 13 3 10.785714 3 8 C 3 5.2142856 5.2385713 3 8 3 z"/>
 <path style="fill:currentColor" class="ColorScheme-Text" d="M 8,8 8,4 c 0.1236173,0 0.245925,0.00561 0.3666824,0.016582 0.12587,0.011439 0.2500558,0.02871 0.372285,0.051539 0.1412378,0.026379 0.279863,0.060181 0.4154555,0.100985 0.1150405,0.034619 0.227898,0.074279 0.3383159,0.1187215 0.1497422,0.060271 0.2949974,0.1293395 0.4351258,0.2065657 0.1143454,0.063017 0.2252774,0.1314659 0.3324474,0.2049989 0.113875,0.078133 0.223503,0.1620066 0.328466,0.2512027 0.105674,0.089799 0.20662,0.1849939 0.302413,0.2851579 0.08908,0.093146 0.173706,0.1905898 0.253532,0.2919883 0.08045,0.1021943 0.156031,0.2084059 0.226384,0.3182845 0.08592,0.1341845 0.16404,0.2738379 0.233733,0.4183216 z"/>
</svg>

<svg xmlns="http://www.w3.org/2000/svg" width="16" height="16"><defs><style id="current-color-scheme" type="text/css">.ColorScheme-Text{color:#bebebe}</style></defs><path class="ColorScheme-Text" d="M8 1c-1.655 0-3.177.544-4.375 1.555l-1.41-1.399L1.12 2.244l1.41 1.4C1.571 4.812 1 6.368 1 8c0 3.889 3.134 7 7 7s7-3.111 7-7c0-1.633-.57-3.189-1.531-4.355l1.41-1.4-1.094-1.089-1.41 1.399C11.177 1.544 9.655 1 8 1zm0 2c2.761 0 5 2.214 5 5s-2.239 5-5 5-5-2.214-5-5 2.239-5 5-5z" fill="currentColor"/><path class="ColorScheme-Text" d="M8 8V4a4.052 4.052 0 0 1 1.154.17 3.97 3.97 0 0 1 1.737 1.066 4.023 4.023 0 0 1 .714 1.028z" fill="currentColor"/></svg>
